X:3
T:Polska från Västergötland
T:Svenska Folkdansar H1 nr 3
O:Västergötland
B:Traditioner av Svenska Folkdansar Häfte 1, nr 3
R:Polska
Z:Nils L
U:V = wedge
M:3/4
L:1/8
K:Am
VAB- BVc VAV^G | VAB- BVc VAV^G | A>(^G A>)(B c>)(d | e>)(=d e>)(f e>)(c |
VA)B- BVc VAV^G | VAB- BVc VAV^G | VA>(B c2) c>d | e2 e2 z2 ::
e2 =g2 g2 | g>(^f g>)(a g>)(=f | e>)d c2 c>d | e>(^d e>)(f e>)(=d |
c>)(B c>)(A B>)(^G | A4) z2 :|

